X: 1
T: MARSHALL HILL'S -- HORNPIPE
B: Ryan's Mammoth Collection of Fiddle Tunes
R: hornpipe
M: C|
L: 1/8
Z: Contributed 20000505193029 by John Chambers jchambers:casc.com
K: Bb
(ude) \
| f>bd>f B>dF>B | D>B,D>F B2(3FGA | B>FD>F d>cB>d | f>ed>e c2(de) |
| f>bd>f B>dF>G | D>B,D>F B2(3FGA | B>FB>d c>eA>c | B2B2B2 :|
|: (uBA) \
| B>df>a b>ag>^f | g>^fg>a g2(cB) | A>FA>c e>gf>e | d>cd>e f2(dc) |
 | B>df>a b>ad>D | E>Gc>e g>ec>E | D>FB>d c>eA>c | B2b2B2 :|
